X: 38948
T: Suzani
R: polka
M: 2/4
K: Gmajor
D|G3 G|dc AG|B3 d|d4|g2 ge|(3faf d2|
(3efe g2|g2 HG2:|B d2 d|ge {e}d2|dd G2|G2 B2|(d2 d2)||
dc AG|E4|AA d2|ge cB|Be Bd|dd B2|A2 FA|G4||

